X: 084
T: Mr Boswell of Auchinleck's Reel
C: attr. John French (1753-1803)
R: reel
B: "John French Collection", John French ed. p.8 #4
S: http://www.heallan.com/french.asp
Z: 2012 John Chambers <jc:trillian.mit.edu>
M: C
L: 1/8
K: Gm
D | G2Bc dBGB | AFcA fcAF | .G(ABc) dfcf | AF {d}cA G/G/G G :|
d | (g>ab).g dgBd | cfaf cfAf | (g>ab).a gbdg | fcdA G/G/G Gd |
    (g>ab).g dgBd | caBg AFcA | BGDG B,GG,B | AF {d}cA G/G/G G |]

%%sep 2 1 500
%%sep 1 1 500

